X:1
T:6 Lieder, Op.13
T:Die stille Lotosblume
T:6 Lieder, Op.13
T:6. Die stille Lotosblume
T:Clara Schumann
T:Emanuel Geibel
T:OpenScore (CC0)
T:OpenScore (CC0)
C:Clara Schumann
Z:Emanuel Geibel
Z:OpenScore (CC0)
%%score 1 { ( 2 3 7 ) | ( 4 5 6 ) }
L:1/8
Q:1/4=70
M:3/4
K:Ab
V:1 treble nm="Voice"
V:2 treble nm="Piano"
V:3 treble 
V:7 treble 
V:4 bass 
V:5 bass 
V:6 bass 
V:1
"^Sehr getragen" z6 | !fermata!z4 z!p! E | c3 c B c |!<(! c2 d2 =d2!<)! |!>(! e3 e f e!>)! | %5
w: |Die|stil- le Lo- tos-|blu- me steigt|aus dem blau- en|
 B4 z B | B3 B (3B B c | d2 d2 z A | A3 A c B | B4 z!mf! E | c3 c B c |!<(! c4 d2!<)! | %12
w: See, die|Blät- ter flim- men und|bli- tzen, der|Kelch ist weiss wie|Schnee. Da|giesst der Mond vom|Him- mel|
 =d2!>(! d e f e!>)! | B4 z2 | B2 B B B c | d2 d2 z A | A3 A c B | E2 z4 | z6 | z6 | z4 z!mf! E | %21
w: all' sei- nen gold'- nen|Schein,|giesst al- le sei- ne|Strah- len in|ih- ren Schooss hin-|ein.|||Im|
 c3 c B c |!<(! c4 d2!<)! |!>(! =d2 d!>)! e f e | B4 z!p! B | B3 B B B | d2 d2 z A | A3 A A A | %28
w: Was- ser um die|Blu- me|krei- set ein weis- ser|Schwan, er|singt so süss, so|lei- se und|schaut die Blu- me|
 _c4 z!pp! _G | _G3 G G G | _G2 G2 z G | _G3 e d _c/ c/ | d4 z2 | z6 | z4 z[Q:1/4=65]"^Innig" c | %35
w: an. Er|singt so süss, so|lei- se und|will im Sin- gen ver-|gehn.||O|
 c2 B2 F A | A2 G2 z F | E F G2 A2 | __B4- Be | e3 A A d | d2 G2 z[Q:1/4=63] G | %41
w: Blu- me, weis- se|Blu- me, kannst|du das Lied ver-|stehn? * o|Blu- me, weis- se|Blu- me, kannst|
 A3 A[Q:1/4=60] c B[Q:1/4=61] |[Q:1/4=59] E6-[Q:1/4=58][Q:1/4=57] | E2[Q:1/4=56] z4 | %44
w: du das Lied ver-|stehn?|_|
[Q:1/4=55] z6 | z6 | z6 |] %47
w: |||
V:2
!pp! z4 B2- | !fermata![DEB]6 |!p! (3z [Ec][Ec] [Ec][Ec][EB][Ec] | %3
 (3z [E^Fc][EFc] [EGd]!<(![EGd] [=FA=d][FAd] | (3z!<)! [EAe][EAe]!>(! [EAe][Ee][Ef][Ee]!>)! | %5
 (3z [EGB][EGB] !/![EGB]4 |!p! (3z [_GB][GB] [GB][GB][FB][F=Ac] | %7
 (3z [FBd][FBd] [FBd][FBd][FBd][FA] | (3z [DFA][DFA] [DFA][DFA] z [DFA] | %9
 (3z [DEB][DEB] [DEB][DG][DF][DE] |!mf! (3z [Ec][Ec] [Ec][Ec][EB][Ec] | %11
 (3z [E^Fc][EFc] [EFc][EFc] [EGd][EGd] | (3z [=FA=d][FAd] [FAd][EAe]!arpeggio![Ef][Ee] | %13
 (3z [EGB][EGB] [EGB][EGB][EGB][EGB] | (3z [E_GB][EGB] [EGB][GB][FB][EF=Ac] | %15
 (3z [DFd][DFd] [DFd][DFd][DFd][DA] | (3z [D_FA][DFA] [DFA][DFA] z [DFA] | %17
 (3z [DEB][DEB] [DEB]!<(![DEB][DEA][DEc]!<)! |!>(! B2-!>)! B!<(!GFA!<)! | G2- [EG]FEF | %20
 [DG][EA] [Gc]2 [GB]2 |!mf! (3z [Ec][Ec] [Ec][Ec][EB][Ec] | (3z [E^Fc][EFc] [EFc][EFc][EGd][EGd] | %23
 (3z [=FA=d][FAd] [FAd][EAe] !arpeggio![Ef][Ee] | %24
 (3z!mp! [EGB][EGB]!p! [EGB]!p![EGB]!p![EGB]!p![EGB] | (3z [E_GB][EGB] [EGB][EGB] z [_DGB] | %26
 (3z [_GAd][GAd] [GAd][GAd][FAd][FAd] | (3z [D_FA][DFA] [DFA][DFA] z [_CFA] | %28
 (3z [_F_G_c][FGc] [FGc][FGc][EGc][EGc] |!pp! (3z [_G_ce][Gce] [Gce][Gce][GBd][Gd_f] | %30
 (3z [_G_ce][Gce] [Gce]"^*"[Ge!courtesy!_g][Gd_f][Gfa] | (3z [_Ge_g][Geg] [Geg][Geg][Gd_f][G_ce] | %32
 (3z [_GBd][GBd] [GBd][GBd][GBd]!arpeggio![EBe] | e2- e"^*"[_CE!courtesy!_c][B,EB][A,=DA] | %34
"_cresc." (3[G,EG][_DEB][DEB] [DEB][DEB][DEA][DEc] |!mp! (3z [DEc][DEc] [DEB][DEG][DF][DA] | %36
 (3z [DA][DA] [DG][DG][DF][DF] | [DE][DF] G2 A2 | (3z [_G__Be][GBe] [GBe][GBe][GBe][GBe] | %39
 (3z [_GAe][GAe] [GAe][GAe] z [FAd] | (3z [FBd][FBd] [FBd][FBd] z [=EBc] | %41
 (3z [FA][FA] [FA][FA] z [D_FA] | (3z [DEB][DEB] [DEB][DEB][DEA][DEc] | c2 [EB][DEG][DF][DA] | %44
 A2 G [G,B,E][A,D][A,DF] | z4 B2- | !fermata![DEB]6 |] %47
V:3
 [D-F]6 | x6 | x6 | x6 | x6 | x6 | x6 | x6 | x6 | x6 | x6 | x6 | x6 | x6 | x6 | x6 | x6 | x6 | %18
 (3z [DE][DE] [DE][DE]DD | (3z [DE][DE] DDDD | x6 | x6 | x6 | x6 | x6 | x6 | x6 | x6 | x6 | x6 | %30
 x6 | x6 | x6 | z E- E x3 | x6 | x6 | x6 | x2 [DE][DE] EE | x6 | x6 | x6 | x6 | x6 | %43
 (3z [DE][DE] D x x2 | (3z DD D x x2 | [D-F]6 | G,6 |] %47
V:4
!ped! [E,-A,]6 | !fermata![E,G,]6!ped-up! | (3A,,[A,C][A,C] [A,C][A,C][G,B,][A,C] | %3
 (3A,,[A,__B,][A,B,] [A,_B,][A,B,] [A,=B,][A,B,] | (3A,,CC C[CE][DF][CE] | %5
 (3E,,[E,B,][E,B,] !/![E,B,]4 | (3E,EE EED[CE] | (3B,,[B,D][B,D] [B,D][B,D][B,D]D | %8
 (3D,,[D,A,][D,A,] [D,A,][D,A,] B,,,[B,,A,] | (3E,,[E,G,][E,G,] [E,G,][E,B,][E,A,][E,G,] | %10
 (3A,,[A,C][A,C] [A,C][A,C][G,B,][A,C] | (3A,,[A,__B,][A,B,] [A,B,][A,B,] [A,_B,][A,B,] | %12
 (3A,,[A,=B,][A,B,] [A,B,]C!arpeggio![DF][CE] | (3E,,[E,B,][E,B,] [E,B,][E,B,][E,B,][E,B,] | %14
 (3E,,[E,B,][E,B,] [E,B,][E,B,][_D,B,][C,F,] | (3B,,,[B,,F,][B,,F,] [B,,F,][B,,F,][B,,F,][D,_F,] | %16
 (3D,,[D,A,][D,A,] [D,A,][D,A,] B,,,[B,,A,] | (3E,,[E,G,][E,G,] [E,G,][E,G,][E,F,][E,A,] | %18
 (3E,,[E,G,][E,G,] [E,G,][E,B,][E,A,][E,C] | (3E,,[E,B,][E,B,] [E,B,][E,A,][E,G,][E,A,] | %20
 [E,B,][E,C] [E,E]2 [E,D]2 | (3A,,[A,C][A,C] [A,C][A,C][G,B,][A,C] | %22
 (3A,,[A,__B,][A,B,] [A,B,][A,B,][A,_B,][A,B,] | (3A,,[A,=B,][A,B,] [A,B,]C !arpeggio![DF][CE] | %24
 (3E,,[E,B,][E,B,] [E,B,][E,B,][E,B,][E,B,] | (3E,,[E,B,][E,B,] [E,B,][E,B,] _G,,[D,B,] | %26
 (3D,,[D,A,][D,A,] [D,A,][D,A,][D,A,][D,A,] | (3D,,[D,A,][D,A,] [D,A,][D,A,] _F,,[_C,A,] | %28
 (3_C,,[_C,_G,][C,G,] [C,G,][C,G,][C,G,][C,G,] | (3_C,[_CE][CE] [CE][CE][B,D][D_F] | %30
"_*  accidentals absent in IMSLP #348578" (3_C,[_CE][CE] [CE][K:treble][E_G][D_F][FA] | %31
[K:bass] (3_C,[K:treble][E_G][EG] [EG][EG][D_F][_CE] | %32
[K:bass] (3_G,,[_G,D][G,D] [G,D][G,D][G,D]!arpeggio![=G,B,D] | %33
 (3z [E,_C][E,C] [E,C] [A,,E,][G,,E,][F,,B,,] | (3[E,,B,,][E,G,][E,G,] [E,G,][E,G,][E,F,][E,A,] | %35
 (3E,,[E,A,][E,A,] [E,G,][E,B,][E,A,][E,C] | (3E,,[E,C][E,C] [E,B,][E,B,][E,A,][E,A,] | %37
 [E,G,][E,A,] [E,B,][E,B,] [E,C][E,C] | (3E,,[E,D][E,D] [E,D][E,D][E,D][E,D] | %39
 (3A,,[A,C][A,C] [A,C][A,C] D,[A,D] | (3G,,[G,B,D][G,B,D] [G,B,D][G,B,D] C,"^rit."[G,B,C] | %41
 (3F,,[F,C][F,C] [F,C][F,C] B,,,[B,,A,] | (3E,,"_dim."[E,G,][E,G,] [E,G,][E,G,][E,F,][E,A,] | %43
 (3E,,[E,A,][E,A,] [E,G,][E,B,][E,A,][E,C] | (3E,,[E,C][E,C] [E,B,]2 [E,,E,]2 | %45
!pp!!ped! [E,,,E,,]6- | !fermata![E,,,E,,]6!ped-up! |] %47
V:5
 x6 | x6 | x6 | x6 | x6 | x6 | x6 | x6 | x6 | x6 | x6 | x6 | x6 | x6 | x6 | x6 | x6 | x6 | x6 | %19
 x6 | x6 | x6 | x6 | x6 | x6 | x6 | x6 | x6 | x6 | x6 | x3[K:treble] x3 | %31
[K:bass] x2/3[K:treble] x16/3 |[K:bass] x6 | x2 A,, x3 | x6 | x6 | x6 | x6 | x6 | x6 | x6 | x6 | %42
 x6 | x6 | x2 x2 F, x | x6 | x6 |] %47
V:6
 x6 | x6 | x6 | x6 | x6 | x6 | x6 | x6 | x6 | x6 | x6 | x6 | x6 | x6 | x6 | x6 | x6 | x6 | x6 | %19
 x6 | x6 | x6 | x6 | x6 | x6 | x6 | x6 | x6 | x6 | x6 | x3[K:treble] x3 | %31
[K:bass] x2/3[K:treble] x16/3 |[K:bass] x6 | A,,2- x4 | x6 | x6 | x6 | x6 | x6 | x6 | x6 | x6 | %42
 x6 | x6 | x6 | x6 | x6 |] %47
V:7
 x6 | x6 | x6 | x6 | x6 | x6 | x6 | x6 | x6 | x6 | x6 | x6 | x6 | x6 | x6 | x6 | x6 | x6 | x6 | %19
 x6 | x6 | x6 | x6 | x6 | x6 | x6 | x6 | x6 | x6 | x6 | x6 | x6 | x6 | x6 | x6 | x6 | x6 | x6 | %38
 x6 | x6 | x6 | x6 | x6 | x6 | x6 | A,6 | x6 |] %47

